data/cards/shapes/ring.svg

<svg xmlns="http://www.w3.org/2000/svg" width="512" height="512" fill="none"><path fill="#7CA1DC" d="M256 512c141.385 0 256-114.615 256-256S397.385 0 256 0 0 114.615 0 256s114.615 256 256 256Z"/><path fill="#5A8BD5" d="M388.253 475.229c-20.293-7.694-33.062-36.96-23.4-52.283L173.951 69.991c-16.2-1.309-29.629-29.661-26.173-46.038C60.49 64.733 0 153.3 0 256c0 141.385 114.615 256 256 256a254.799 254.799 0 0 0 132.253-36.771Z"/><path fill="#fff" d="M256 465.314c115.601 0 209.314-93.713 209.314-209.314S371.601 46.686 256 46.686 46.686 140.399 46.686 256 140.399 465.314 256 465.314Z"/><path fill="#fff" d="M353.012 441.507C101.358 431.055 129.162 161.4 171.27 64.56A209.352 209.352 0 0 0 46.686 256c0 115.6 93.714 209.314 209.314 209.314a208.39 208.39 0 0 0 97.012-23.807Z"/></svg>

<svg width="512" height="512" viewBox="0 0 512 512" fill="none" xmlns="http://www.w3.org/2000/svg">
<path d="M256 512C397.385 512 512 397.385 512 256C512 114.615 397.385 0 256 0C114.615 0 0 114.615 0 256C0 397.385 114.615 512 256 512Z" fill="#7CA1DC"/>
<path d="M388.253 475.229C367.96 467.535 355.191 438.269 364.853 422.946L173.951 69.991C157.751 68.682 144.322 40.33 147.778 23.953C60.49 64.733 0 153.3 0 256C0 397.385 114.615 512 256 512C302.618 512.072 348.363 499.354 388.253 475.229Z" fill="#5A8BD5"/>
<path d="M256 465.314C371.601 465.314 465.314 371.601 465.314 256C465.314 140.399 371.601 46.686 256 46.686C140.399 46.686 46.686 140.399 46.686 256C46.686 371.601 140.399 465.314 256 465.314Z" fill="#9FE6D6"/>
<path d="M353.012 441.507C101.358 431.055 129.162 161.4 171.27 64.56C134.195 80.9773 102.686 107.808 80.5694 141.792C58.4532 175.777 46.6821 215.453 46.686 256C46.686 371.6 140.4 465.314 256 465.314C289.789 465.361 323.083 457.19 353.012 441.507Z" fill="#7FD39C"/>
</svg>
